images/icons/star.svg

<svg width="74" height="15" viewBox="0 0 74 15" fill="none" xmlns="http://www.w3.org/2000/svg">
<path fill-rule="evenodd" clip-rule="evenodd" d="M66.6905 12.1813L62.9968 14.7742C62.5524 15.0871 62.288 14.8771 62.408 14.2996L63.4149 9.44598L60.1271 6.20813C59.7315 5.8192 59.8233 5.46563 60.3521 5.41527L64.6665 5.01884L66.3334 0.411697C66.5302 -0.134732 66.849 -0.136875 67.0477 0.411697L68.7165 5.01884L73.0309 5.41527C73.5484 5.46455 73.6552 5.8117 73.253 6.20813L69.9652 9.44384L70.973 14.2996C71.0921 14.8738 70.8352 15.0924 70.3843 14.7753L66.6905 12.1803V12.1813ZM51.6905 12.1813L47.9968 14.7742C47.5524 15.0871 47.288 14.8771 47.408 14.2996L48.4149 9.44598L45.1271 6.20813C44.7315 5.8192 44.8234 5.46563 45.3521 5.41527L49.6665 5.01884L51.3334 0.411697C51.5302 -0.134732 51.849 -0.136875 52.0477 0.411697L53.7165 5.01884L58.0308 5.41527C58.5484 5.46455 58.6552 5.8117 58.253 6.20813L54.9652 9.44384L55.973 14.2996C56.0921 14.8738 55.8352 15.0924 55.3843 14.7753L51.6905 12.1803V12.1813ZM36.8096 12.1813L33.1159 14.7742C32.6705 15.0871 32.4071 14.8771 32.5252 14.2996L33.534 9.44598L30.2452 6.20813C29.8496 5.8192 29.9415 5.46563 30.4702 5.41527L34.7846 5.01884L36.4515 0.411697C36.6484 -0.134732 36.9671 -0.136875 37.1659 0.411697L38.8327 5.01884L43.148 5.41527C43.6674 5.46455 43.7734 5.8117 43.373 6.20813L40.0843 9.44384L41.0921 14.2996C41.2112 14.8738 40.9543 15.0924 40.5034 14.7753L36.8096 12.1803V12.1813ZM21.7655 12.1813L18.0718 14.7742C17.6265 15.0871 17.3621 14.8771 17.4812 14.2996L18.4899 9.44598L15.2021 6.20813C14.8065 5.8192 14.8984 5.46563 15.4252 5.41527L19.7405 5.01884L21.4093 0.411697C21.6062 -0.134732 21.9249 -0.136875 22.1218 0.411697L23.7905 5.01884L28.1049 5.41527C28.6243 5.46455 28.7302 5.8117 28.3299 6.20813L25.0412 9.44384L26.048 14.2996C26.1671 14.8738 25.9112 15.0924 25.4593 14.7753L21.7655 12.1803V12.1813ZM6.8096 12.1813L3.11585 14.7742C2.67054 15.0871 2.4071 14.8771 2.52523 14.2996L3.53398 9.44598L0.244293 6.20705C-0.151332 5.81813 -0.0594575 5.46455 0.469292 5.4142L4.78367 5.01777L6.45054 0.410625C6.64742 -0.135803 6.96617 -0.137946 7.16492 0.410625L8.83179 5.01777L13.1471 5.4142C13.6665 5.46348 13.7724 5.81063 13.3721 6.20705L10.0834 9.44277L11.0912 14.2985C11.2102 14.8728 10.9534 15.0913 10.5024 14.7742L6.80867 12.1792L6.8096 12.1813Z" fill="#162345"/>
</svg>

<svg width="74" height="15" fill="none" xmlns="http://www.w3.org/2000/svg"><path fill-rule="evenodd" clip-rule="evenodd" d="M66.69 12.181l-3.693 2.593c-.445.313-.709.103-.589-.474l1.007-4.854-3.288-3.238c-.396-.389-.304-.742.225-.793l4.315-.396L66.332.412c.197-.547.516-.549.715 0l1.668 4.607 4.315.396c.517.05.624.397.222.793l-3.288 3.236 1.008 4.856c.12.574-.138.792-.589.475L66.69 12.18v.001zm-15 0l-3.693 2.593c-.445.313-.709.103-.589-.474l1.007-4.854-3.288-3.238c-.396-.389-.304-.742.225-.793l4.315-.396L51.332.412c.197-.547.516-.549.715 0l1.669 4.607 4.314.396c.517.05.624.397.222.793l-3.288 3.236 1.008 4.856c.12.574-.138.792-.589.475L51.69 12.18v.001zm-14.88 0l-3.694 2.593c-.446.313-.709.103-.59-.474l1.008-4.854-3.289-3.238c-.395-.389-.303-.742.225-.793l4.315-.396L36.452.412c.196-.547.515-.549.714 0l1.667 4.607 4.315.396c.52.05.625.397.225.793l-3.289 3.236 1.008 4.856c.12.574-.138.792-.589.475L36.81 12.18v.001zm-15.045 0l-3.693 2.593c-.445.313-.71.103-.59-.474l1.008-4.854-3.288-3.238c-.396-.389-.304-.742.223-.793l4.316-.396L21.409.412c.197-.547.516-.549.713 0l1.669 4.607 4.314.396c.52.05.625.397.225.793l-3.29 3.236 1.007 4.856c.12.574-.137.792-.589.475l-3.694-2.595v.001zm-14.955 0l-3.694 2.593c-.445.313-.709.103-.59-.474l1.008-4.854-3.29-3.239c-.395-.389-.303-.742.225-.793l4.315-.396L6.45.41c.196-.547.515-.549.714 0l1.667 4.607 4.315.396c.52.05.625.397.225.793l-3.289 3.236 1.008 4.856c.12.574-.138.792-.589.475L6.81 12.18v.002z" fill="#162345"/></svg>
